images/quote-after.svg

<svg width="51" height="42" viewBox="0 0 51 42" fill="none" xmlns="http://www.w3.org/2000/svg">
<path d="M0.462503 8.59999L5.4625 1.8C7.4625 0.999992 9.39583 0.599989 11.2625 0.599989C12.3292 0.599989 13.5292 0.799991 14.8625 1.19999C16.0625 1.73333 17.1958 2.39999 18.2625 3.19999C19.3292 4.13333 20.2625 5.26666 21.0625 6.6C21.7292 7.93333 22.0625 9.46666 22.0625 11.2C22.0625 13.2 21.8625 15.2667 21.4625 17.4C21.0625 19.5333 20.3292 21.8667 19.2625 24.4C18.0625 26.9333 16.4625 29.6 14.4625 32.4C12.3292 35.2 9.59583 38.2667 6.2625 41.6C5.86249 41.6 5.52916 41.6 5.2625 41.6C4.86249 41.7333 4.52916 41.8 4.2625 41.8C1.99583 41.8 0.729163 40.8 0.4625 38.8C0.595832 38.2667 0.995831 37.4667 1.6625 36.4C2.19583 35.3333 2.8625 34.2667 3.6625 33.2C4.32916 32.1333 4.99583 31.1333 5.66249 30.2C6.19583 29.4 6.52916 28.9333 6.66249 28.8C8.12916 26.1333 9.12917 23.1333 9.6625 19.8L8.6625 19.8C7.8625 19.8 7.0625 19.6667 6.2625 19.4C5.32916 19.2667 4.46249 18.8 3.6625 18C2.8625 17.2 2.19583 16.0667 1.6625 14.6C0.995833 13.1333 0.595834 11.1333 0.462503 8.59999ZM28.4625 8.59999L33.4625 1.8C35.4625 0.999994 37.3958 0.599991 39.2625 0.599992C40.3292 0.599992 41.5292 0.799993 42.8625 1.2C44.0625 1.73333 45.1958 2.4 46.2625 3.19999C47.3292 4.13333 48.2625 5.26667 49.0625 6.6C49.7292 7.93333 50.0625 9.46666 50.0625 11.2C50.0625 13.2 49.8625 15.2667 49.4625 17.4C49.0625 19.5333 48.3292 21.8667 47.2625 24.4C46.0625 26.9333 44.4625 29.6 42.4625 32.4C40.3292 35.2 37.5958 38.2667 34.2625 41.6C33.8625 41.6 33.5292 41.6 33.2625 41.6C32.8625 41.7333 32.5292 41.8 32.2625 41.8C29.9958 41.8 28.7292 40.8 28.4625 38.8C28.5958 38.2667 28.9958 37.4667 29.6625 36.4C30.1958 35.3333 30.8625 34.2667 31.6625 33.2C32.3292 32.1333 32.9958 31.1333 33.6625 30.2C34.1958 29.4 34.5292 28.9333 34.6625 28.8C36.1292 26.1333 37.1292 23.1333 37.6625 19.8L36.6625 19.8C35.8625 19.8 35.0625 19.6667 34.2625 19.4C33.3292 19.2667 32.4625 18.8 31.6625 18C30.8625 17.2 30.1958 16.0667 29.6625 14.6C28.9958 13.1333 28.5958 11.1333 28.4625 8.59999Z" fill="#DBDBDB"/>
</svg>

<svg width="51" height="42" fill="none" xmlns="http://www.w3.org/2000/svg"><path d="m.463 8.6 5-6.8c2-.8 3.933-1.2 5.8-1.2 1.066 0 2.266.2 3.6.6 1.2.533 2.333 1.2 3.4 2 1.066.933 2 2.067 2.8 3.4.666 1.333 1 2.867 1 4.6 0 2-.2 4.067-.6 6.2-.4 2.133-1.134 4.467-2.2 7-1.2 2.533-2.8 5.2-4.8 8-2.134 2.8-4.867 5.867-8.2 9.2h-1c-.4.133-.734.2-1 .2-2.267 0-3.534-1-3.8-3 .133-.533.533-1.333 1.2-2.4a21.016 21.016 0 0 1 2-3.2 58.544 58.544 0 0 1 2-3c.533-.8.866-1.267 1-1.4 1.466-2.667 2.466-5.667 3-9h-1c-.8 0-1.6-.133-2.4-.4-.934-.133-1.8-.6-2.6-1.4-.8-.8-1.467-1.933-2-3.4-.667-1.467-1.067-3.467-1.2-6Zm28 0 5-6.8c2-.8 3.933-1.2 5.8-1.2 1.066 0 2.266.2 3.6.6 1.2.533 2.333 1.2 3.4 2 1.066.933 2 2.067 2.8 3.4.666 1.333 1 2.867 1 4.6 0 2-.2 4.067-.6 6.2-.4 2.133-1.134 4.467-2.2 7-1.2 2.533-2.8 5.2-4.8 8-2.134 2.8-4.867 5.867-8.2 9.2h-1c-.4.133-.734.2-1 .2-2.267 0-3.534-1-3.8-3 .133-.533.533-1.333 1.2-2.4a21.014 21.014 0 0 1 2-3.2 58.544 58.544 0 0 1 2-3c.533-.8.866-1.267 1-1.4 1.466-2.667 2.466-5.667 3-9h-1c-.8 0-1.6-.133-2.4-.4-.934-.133-1.8-.6-2.6-1.4-.8-.8-1.467-1.933-2-3.4-.667-1.467-1.067-3.467-1.2-6Z" fill="#DBDBDB"/></svg>
